src/assets/icons/ic-chain.svg

<svg width="24" height="24" viewBox="0 0 24 24" fill="none" xmlns="http://www.w3.org/2000/svg">
  <path fill-rule="evenodd" clip-rule="evenodd"
    d="M19.7787 8.46466C20.5597 7.68361 20.5597 6.41728 19.7787 5.63623L18.3644 4.22202C17.5834 3.44097 16.3171 3.44097 15.536 4.22202L12.354 7.404C12.1588 7.59926 11.8422 7.59926 11.6469 7.404C11.4517 7.20874 11.4517 6.89215 11.6469 6.69689L14.8289 3.51491C16.0005 2.34334 17.9 2.34334 19.0716 3.51491L20.4858 4.92912C21.6573 6.1007 21.6573 8.00019 20.4858 9.17176L15.536 14.1215C14.3644 15.2931 12.465 15.2931 11.2934 14.1215L10.9398 13.768C10.7446 13.5727 10.7446 13.2561 10.9398 13.0609C11.1351 12.8656 11.4517 12.8656 11.6469 13.0609L12.0005 13.4144C12.7815 14.1955 14.0479 14.1955 14.8289 13.4144L19.7787 8.46466ZM12.0002 10.586L12.3537 10.9396C12.549 11.1348 12.8656 11.1348 13.0609 10.9396C13.2561 10.7443 13.2561 10.4277 13.0609 10.2325L12.7073 9.87892C11.5357 8.70735 9.63623 8.70735 8.46466 9.87892L3.51491 14.8287C2.34334 16.0002 2.34334 17.8997 3.51491 19.0713L4.92912 20.4855C6.1007 21.6571 8.00019 21.6571 9.17176 20.4855L12.3537 17.3035C12.549 17.1083 12.549 16.7917 12.3537 16.5964C12.1585 16.4012 11.8419 16.4012 11.6466 16.5964L8.46466 19.7784C7.68361 20.5595 6.41728 20.5595 5.63623 19.7784L4.22202 18.3642C3.44097 17.5832 3.44097 16.3168 4.22202 15.5358L9.17176 10.586C9.95281 9.80498 11.2191 9.80498 12.0002 10.586Z"
    fill="#5A5A5C" />
</svg>

<svg width="24" height="24" xmlns="http://www.w3.org/2000/svg">
  <path fill-rule="evenodd" clip-rule="evenodd"
    d="M19.779 8.465a2 2 0 000-2.829l-1.415-1.414a2 2 0 00-2.828 0l-3.182 3.182a.5.5 0 11-.707-.707l3.182-3.182a3 3 0 014.243 0l1.414 1.414a3 3 0 010 4.243l-4.95 4.95a3 3 0 01-4.243 0l-.353-.354a.5.5 0 01.707-.707l.354.353a2 2 0 002.828 0l4.95-4.95zM12 10.586l.354.354a.5.5 0 00.707-.707l-.354-.354a3 3 0 00-4.242 0l-4.95 4.95a3 3 0 000 4.242l1.414 1.414a3 3 0 004.243 0l3.182-3.181a.5.5 0 10-.707-.708l-3.182 3.182a2 2 0 01-2.829 0l-1.414-1.414a2 2 0 010-2.828l4.95-4.95a2 2 0 012.828 0z" />
</svg>
